components/brave_wallet_ui/page/screens/swap/assets/lp-icons/dradex.svg

<svg viewBox="0 0 34 37" fill="none" xmlns="http://www.w3.org/2000/svg">
  <path
    d="M7.02527 16.8898L8.05618 17.2587L9.58783 15.429L9.7351 14.9864L9.88238 13.4518C9.88238 13.4518 13.034 10.0727 14.5657 6.54614C14.5657 6.54614 14.2711 9.99896 13.3139 11.6811C13.3139 11.6811 17.1282 9.33495 21.517 9.40873C21.517 9.40873 16.2446 11.1646 25.6259 13.1567C25.6259 13.1567 20.6481 14.4847 25.2577 16.6095C25.2577 16.6095 27.3785 17.0521 26.9367 20.8738C26.9367 20.8738 26.5685 19.8409 26.053 19.4721C26.053 19.4721 24.8012 18.6605 24.8012 20.2098C24.8012 20.2098 25.8321 22.9249 24.5803 25.1235C24.5803 25.1235 24.6245 24.489 24.3741 23.8987C24.3741 23.884 24.3594 23.8692 24.3447 23.8692C24.1826 23.7954 23.2548 23.397 23.1223 24.4742C23.1223 24.4742 23.0045 26.8203 21.2224 28.8861C21.2224 28.8861 19.9706 29.8452 19.1753 30.2141C19.1753 30.2141 20.059 29.6239 20.2799 28.0893C20.2799 28.0893 19.8381 27.1302 18.4537 28.0156C18.4537 28.0156 14.9339 29.919 11.5613 29.7715L14.0502 17.362C14.0502 17.362 16.2446 17.2144 17.9382 18.8376C17.9382 18.8376 19.411 20.018 19.1164 22.4379C19.1164 22.4379 18.0855 20.6082 16.4066 20.2393L15.1548 26.4072C15.1548 26.4072 19.9117 25.6694 20.5008 20.018C20.5008 20.018 21.3108 21.1247 21.3108 22.069C21.3108 22.069 21.679 12.8911 13.4759 16.8603L12.5186 16.0488L12.5922 17.5243C12.5922 17.5243 12.5922 18.0113 12.0473 18.0998C12.0326 18.0998 12.0178 18.0998 12.0031 18.0998C11.414 18.1736 9.29328 18.1736 9.7351 20.741C9.7351 20.6968 7.17254 20.3279 7.02527 16.8898Z"
    fill="url(#paint0_linear_2969_5375)" />
  <path d="M10.442 15.3848L11.7528 13.4666V14.3519L10.442 15.3848Z" fill="white" />
  <path d="M7.80579 18.0998L8.08561 17.8784L8.23288 18.5424L7.80579 18.0998Z" fill="white" />
  <path
    d="M16.9662 36.5C16.1562 36.5 15.3315 36.2934 14.6098 35.8655L3.12249 29.2255C1.66448 28.3844 0.766113 26.8203 0.766113 25.1382V11.8581C0.766113 10.176 1.66448 8.6119 3.12249 7.77083L14.6098 1.1308C16.0678 0.289733 17.8646 0.289733 19.3226 1.1308C21.841 2.60636 23.9028 3.7573 25.567 4.67215C33.3283 8.95128 33.402 9.06932 33.2252 17.9522C33.181 19.8557 33.1369 22.2313 33.1663 25.1382C33.1663 26.8203 32.2679 28.3844 30.8099 29.2255L19.3226 35.8655C18.601 36.2934 17.7909 36.5 16.9662 36.5ZM16.9662 1.3964C16.3035 1.3964 15.6555 1.55871 15.0664 1.91285L3.57904 8.55287C2.40085 9.23163 1.67921 10.5006 1.67921 11.8581V25.1382C1.67921 26.4957 2.40085 27.7647 3.57904 28.4434L15.0664 35.0835C16.2446 35.7622 17.7026 35.7622 18.866 35.0835L30.3534 28.4434C31.5316 27.7647 32.2532 26.4957 32.2532 25.1382C32.2238 22.2166 32.2827 19.8409 32.3121 17.9227C32.4005 13.6731 32.4447 11.5335 31.5758 10.0284C30.7068 8.52336 28.8512 7.50523 25.1252 5.4542C23.461 4.53935 21.3697 3.38841 18.8513 1.89809C18.2917 1.57347 17.6289 1.3964 16.9662 1.3964Z"
    fill="url(#paint1_linear_2969_5375)" />
  <defs>
    <linearGradient
      id="paint0_linear_2969_5375"
      x1="26.9972"
      y1="6.54614"
      x2="3.66635"
      y2="26.2336"
      gradientUnits="userSpaceOnUse">
      <stop stop-color="#FF18F6" />
      <stop offset="0.859375" stop-color="#4B73FF" />
    </linearGradient>
    <linearGradient
      id="paint1_linear_2969_5375"
      x1="33.2652"
      y1="0.499999"
      x2="-2.54718"
      y2="32.8298"
      gradientUnits="userSpaceOnUse">
      <stop stop-color="#FF18F6" />
      <stop offset="0.859375" stop-color="#4B73FF" />
    </linearGradient>
  </defs>
</svg>

<svg xmlns="http://www.w3.org/2000/svg" fill="none" viewBox="0 0 34 37"><path fill="url(#a)" d="m7.025 16.89 1.031.369 1.532-1.83.147-.443.147-1.534s3.152-3.38 4.684-6.906c0 0-.295 3.453-1.252 5.135 0 0 3.814-2.346 8.203-2.272 0 0-5.272 1.756 4.109 3.748 0 0-4.978 1.328-.368 3.453 0 0 2.12.442 1.679 4.264 0 0-.369-1.033-.884-1.402 0 0-1.252-.812-1.252.738 0 0 1.031 2.715-.22 4.913 0 0 .044-.634-.207-1.224a.032.032 0 0 0-.03-.03c-.161-.074-1.09-.472-1.222.605 0 0-.117 2.346-1.9 4.412 0 0-1.251.96-2.047 1.328 0 0 .884-.59 1.105-2.125 0 0-.442-.959-1.826-.073 0 0-3.52 1.903-6.893 1.756l2.49-12.41s2.194-.148 3.887 1.476c0 0 1.473 1.18 1.178 3.6 0 0-1.03-1.83-2.71-2.199l-1.251 6.168s4.757-.738 5.346-6.389c0 0 .81 1.107.81 2.051 0 0 .368-9.178-7.835-5.209l-.957-.811.073 1.475s0 .487-.545.576h-.044c-.589.074-2.71.074-2.268 2.641 0-.044-2.562-.413-2.71-3.851Z"/><path fill="#fff" d="m10.442 15.385 1.31-1.918v.885l-1.31 1.033ZM7.806 18.1l.28-.222.147.664-.427-.442Z"/><path fill="url(#b)" d="M16.966 36.5a4.63 4.63 0 0 1-2.356-.635l-11.488-6.64a4.724 4.724 0 0 1-2.356-4.087v-13.28c0-1.682.898-3.246 2.356-4.087L14.61 1.13a4.717 4.717 0 0 1 4.713 0 255.99 255.99 0 0 0 6.244 3.541c7.761 4.28 7.835 4.397 7.658 13.28-.044 1.904-.088 4.28-.059 7.186a4.724 4.724 0 0 1-2.356 4.087l-11.487 6.64a4.594 4.594 0 0 1-2.357.635Zm0-35.104a3.65 3.65 0 0 0-1.9.517L3.58 8.553a3.818 3.818 0 0 0-1.9 3.305v13.28c0 1.358.722 2.627 1.9 3.305l11.487 6.64a3.8 3.8 0 0 0 3.8 0l11.487-6.64a3.818 3.818 0 0 0 1.9-3.305c-.03-2.921.03-5.297.06-7.215.087-4.25.132-6.39-.737-7.895-.87-1.505-2.725-2.523-6.45-4.574a215.783 215.783 0 0 1-6.275-3.556 3.792 3.792 0 0 0-1.885-.502Z"/><defs><linearGradient id="a" x1="26.997" x2="3.666" y1="6.546" y2="26.234" gradientUnits="userSpaceOnUse"><stop stop-color="#FF18F6"/><stop offset=".859" stop-color="#4B73FF"/></linearGradient><linearGradient id="b" x1="33.265" x2="-2.547" y1=".5" y2="32.83" gradientUnits="userSpaceOnUse"><stop stop-color="#FF18F6"/><stop offset=".859" stop-color="#4B73FF"/></linearGradient></defs></svg>
